X:1
T:Grenoble, 87.87 D
T:Grenoble, 87.87 D
T:Ora J. Howard Teasley, 1907
T:Public Domain Courtesy of the Cyber Hymnal™
C:Ora J. Howard Teasley, 1907
Z:Public Domain
Z:Courtesy of the Cyber Hymnal™
%%score ( 1 2 ) ( 3 4 )
L:1/8
Q:1/4=103
M:6/8
K:E
V:1 treble 
V:2 treble 
V:3 bass 
V:4 bass 
V:1
 [GB] | [Ac]2 [GB] E2 [EG] | [EB]2 [EA] C2 [EA] | [EG] [DF]2 E2 [DF] | [EG]3- [EG]2 [GB] | %5
 [Ac]2 [GB] E2 [EG] | [EB]2 [EA] C2 [EA] | [EG] [DF]2 [B,D]2 [B,F] | [B,E]3- [B,E]2 [EG] | %9
 [DF]2 [EG] [FA]2 [Ac] | [GB]2 [FA] [EG]2 [GB] | [Ge]2 [GB] ([EG][FA])[EG] | [DF]3- [DF]2 [GB] | %13
 [Ac]2 [GB] E2 [EG] | [EB]2 [EA] C2 [EA] | [EG] [DF]2 [B,D]2 [B,F] | [B,E]3- [B,E]2 |] %17
V:2
 x | x3 E2 x | x3 C2 x | x3 E2 x | x6 | x3 E2 x | x3 C2 x | x6 | x6 | x6 | x6 | x6 | x6 | x3 E2 x | %14
 x3 C2 x | x6 | x5 |] %17
V:3
 [E,E] | [E,E]2 [E,E] [E,G,]2 [E,B,] | [A,,C]2 [A,,C] [A,,A,]2 [A,,C] | %3
 [B,,B,] [B,,B,]2 [G,,B,]2 [B,,B,] | [E,B,]3- [E,B,]2 [E,E] | [E,E]2 [E,E] [E,G,]2 [E,B,] | %6
 [A,,C]2 [A,,C] [A,,A,]2 [A,,C] | [B,,B,] [B,,B,]2 [B,,F,]2 [B,,A,] | [E,G,]3- [E,G,]2 [E,B,] | %9
 [B,,B,]2 [B,,B,] [B,,B,]2 [B,,D] | [E,E]2 [E,B,] [E,B,]2 [E,B,] | [E,B,]2 [E,B,] B,2 [E,B,] | %12
 [B,,B,]3- [B,,B,]2 [E,B,] | [E,E]2 [E,E] [E,G,]2 [E,B,] | [A,,C]2 [A,,C] [A,,A,]2 [A,,C] | %15
 [B,,B,] [B,,B,]2 [B,,F,]2 [B,,A,] | [E,G,]3- [E,G,]2 |] %17
V:4
 x | x6 | x6 | x6 | x6 | x6 | x6 | x6 | x6 | x6 | x6 | x3 (D,D,) x | x6 | x6 | x6 | x6 | x5 |] %17

